X:1
T:Title
L:1/8
M:4/4
I:linebreak $
K:G
V:1 treble nm="Voice"
V:1
"G" BdAB G2 Bd | gdBG"C" c2 Bc |"G" dB"C"cA"D" A2 dc |"G" BGdc"D" A2 dc |"G" BdAB G2 Bd | %5
 gdBG"C" c2 Bc |"G" dB"C"cA"D" A2 dc |1"G" BG"D"AF"G" G2 dc :|2"G" BG"D"AF"G" G3 c |: %9
"G" Bdgf g3 b | agbg"D" agfe | daag a3 b | agab"G" g2 dc |"G" BGBd g3 a | bgdB"C" c2 Bc | %15
"G" dB"C"cA"D" FAdc |1"G" Bd"D"AF"G" G3 c :|2"G" Bd"D"AF"G" G2 dc |] %18
